X:1
T:SIX IRISH FOLKSONGS
T:
T:No. 6.     OH, THE SIGHT ENTRANCING
T:(Air.-"Planxty Sudley")
T:(Op. 78.)
T:Charles Villiers Stanford (1852-1924)
T:Thomas Moore (1779-1852)
T:SIX IRISH FOLKSONGS No. 6.     OH, THE SIGHT ENTRANCING (Air.-"Planxty Sudley") (Op. 78.)
T:Copyright © CPDL
T:Copyright © CPDL
T:Copyright © CPDL
T:Copyright © CPDL
T:Copyright © CPDL
T:Copyright © CPDL
T:Copyright © CPDL
C:Charles Villiers Stanford (1852-1924)
Z:Thomas Moore (1779-1852)
Z:Copyright © CPDL
%%score [ 1 2 3 ( 4 5 ) ]
L:1/8
Q:1/4=120
M:4/4
K:C
V:1 treble nm="Soprano" snm="S."
V:2 treble nm="Alto" snm="A."
V:3 treble-8 transpose=-12 nm="Tenor" snm="T."
V:4 bass nm="Bass" snm="B."
V:5 bass 
V:1
!f!"^Allegro con fuoco" C3 C (CD)!<(! (EF)!<)! | G4 G2 B2 | c3 B c2 d2 | e4 G2 z e | e2 f2 g3 e | %5
w: 1. the sight * en- *|tranc- ing, When|morn- ing's beam is|glanc- ing O'er|files ar- ray'd With|
 d2 e2 f3 d | e2 c>c d2 B2 | c4 c2!mf!!mf! c2 | e6 c2 | (e2 d2) G2 G>G | c3 B c2 d2 | %11
w: helm and blade, And|plumes in the gay wind|danc- ing! When|hearts are|beat- * ing, And the|trum- pet's voice re-|
 (e3 f) !fermata!g2 z!p! G | G2 E2 F2 (EF) | G2 E2 F2 (EF) | (!>!AG) (FE) (GF) (ED) | C4 C2 z2 | %16
w: peat- * ing That|song, whose breath May *|lead to death, But *|nev- * er * to * re- *|treat ing.|
 z8 | z8 | z8 | z8 |!mf! e2 e>f g2 e2 | (d!<(!c) (d!<)!e) f2!f! d2 | e2 c2 d2 B2 | c4 c4 | %24
w: ||||Think 'tis the shade By|Vic- * t'ry * made, Whose|wings right o'er us|ho- ver.|
!f! C3 C (CD) (EF) | G4 G2 B2 | c3 B (c!<(!d) (e!<)!c) | (d3 B) .G2 G2 |!ff! g3 g f2 e2 | %29
w: O that sight * en- *|tranc- ing, When|morn- ing's beam * is _|glanc- * ing O'er|files ar- ray'd With|
 f2 g2 !fermata!a2 f2 | e2 c>c (ed) (cB) | c8 | .c2 z2 z4 ||!f! C2 CC (C!<(!D) (E!<)!F) | %34
w: helm and blade, And|plumes in the gay * wind *|danc-|ing!|Yet 'tis not helm * or _|
 G4 G2 B2 | c3 B c2 d2 | e4 G2 e2 | e2 f2 g3 e | d2 e2 f3 d | e2 c2 d2 B2 | c4 c2!mf! c2 | %41
w: feath- er For|ask yon des- pot,|wheth- er His|plum- ed bands Could|bring such hands And|hearts as ours to-|geth- er. Leave|
 e3 e e2 c2 | (e2 d2) G2!<(! G2 | c3!<)! B c2 d2 | (e3 f) !fermata!g2 z!p! G | G2 E2 F2 (EF) | %46
w: pomps to those who|need * 'em, Give|man but heart and|free- * dom, And|proud he braves The *|
 G2 E2 F2 (EF) | (!>!AG) (FE) (GF) (ED) | C4 C2!f! G2 | e7/2 d/ e2 f2 | g4 e2 e2 | d3 c (Bc) (de) | %52
w: gau- diest slaves, That *|crawl * when * mon- * archs *|lead 'em. The|sword may pierce the|beav- er, Stone|walls in time * may *|
 f4 d2 z G | e7/2 f/ g2 e2 |!<(! (dc) (de)!<)! f2!f! d2 | e2 d2 d2 B2 | c4 c4 |!f! C3 C (CD) (EF) | %58
w: sev- er, 'Tis|mind a- lone, Worth|steel * and * stone, That|keeps men free for|ev- er.|Oh, that sight _ en- *|
 G4 G2 B2 | c3 B!<(! (cd) (e!<)!c) | (d3 B) .G2 G2 |!ff! g3 g f2 e2 | f2 g2 !fermata!a2 f2 | %63
w: tranc- ing, When|morn- ing's beam _ is _|glanc- * ing O'er|files ar- rayed With|helm and blade, In|
 e2 c2 (ed) (cB) | c8 | .c2 z2 !fermata!z4 || %66
w: Free- dom's cause * ad- *|vanc-|ing!|
V:2
!f! C3 C (CD)!<(! (EF)!<)! | G4 G2 G2 | G3 G G2 G2 | G4 E2 z G | G2 c2 B3 c | A2 A2 A3 A | %6
w: 1. the sight * en- *|tranc- ing, When|morn- ing's beam is|glanc- ing O'er|files ar- ray'd With|helm and blade, And|
 G2 E>E A2 G2 | G4 G2 G2 | G6 G2 | G4 F2 E>E | A3 G A2 G2 | (G3 c) !fermata!B2 z!p! G | %12
w: plumes in the gay wind|danc- ing! When|hearts are|beat- ing, And the|trum- pet's voice re-|peat- * ing That|
 G2 E2 D2 (EF) | G2 E2 D2 (EF) | (!>!AG) (FE) (GF) (ED) | C4 C2 z2 |!mf! E2 E>D E2 F2 | G4 E3 E | %18
w: song, whose breath May *|lead to death, But *|nev- * er * to * re- *|treat- ing.|Then, if a cloud comes|o- ver The|
 D3 C (B,C) (DE) | F4 D4 |!mf! c2 [Ac]>[Ac] [Gd]2 [GB]2 |!<(! [Fc]3!<)! [Gc] [Ac]2!f! [GB]2 | %22
w: brow of sire * or _|lov- er,|Think 'tis the shade By|Vic- t'ry made, Whose|
 [GB]2 [EA]2 A2 G2 | (G2 A2) G4 |!f! C3 C C2 (CD) | D4 D2 G2 | G3 G G2!<(! G2!<)! | G4 .D2 G2 | %28
w: wings right o'er us|ho- * ver.|Oh, that sight en- *|tranc- ing, When|morn- ing's beam is|glanc- ing O'er|
!ff!!ff! c3 c c2 c2 | c2 c2 !fermata!c2 F2 | G2 E>E A2 G2 | G8 | .G2 z2 z4 || %33
w: files ar- ray'd With|helm and blade, And|plumes in the gay wind|danc-|ing!|
!f! C2 CC (C!<(!D) (E!<)!F) | G4 G2 G2 | G3 G G2 G2 | G4 E2 G2 | G2 c2 B3 c | A2 A2 A3 A | %39
w: Yet 'tis not * helm or _|feath- er For|ask yon des- pot,|wheth- er His|plum- ed bands Could|bring such hands And|
 G2 E2 A2 G2 | G4 G2!mf! G2 | G3 G G2 G2 | G4 F2!<(! E2 | A3!<)! G A2 G2 | %44
w: hearts as ours to|geth- er. Leave|pomps to those who|need 'em, Give|man but heart and|
 (G3 c) !fermata!B2 z!p! G | G2 E2 D2 (EF) | G2 E2 D2 (EF) | (!>!AG) (FE) (GF) (ED) | C4 C2!f! G2 | %49
w: free- * dom, And|proud he braves The *|gau- diest slaves, That *|crawl * when * mon- * archs *|lead 'em. The|
 G7/2 G/ G2 c2 | B4 B2 A2 | A3 A G2 G2 | A4 G2 z G | c7/2 [Ac]/ [Gd]2 [GB]2 | %54
w: sword may pierce the|beav- er, Stone|walls in time may|sev- er, 'Tis|mind a- lone, Worth|
!<(! [Fc]3 [Gc]!<)! [Ac]2!f! [GB]2 | [GB]2 [EA]2 A2 G2 | G2 A2 G4 |!f! C3 C C2 (CD) | D4 D2 G2 | %59
w: steel and stone, That|keeps men free for|ev- * er.|Oh, that sight en- *|tranc- ing, When|
 G3 G!<(! G2!<)! G2 | G4 .D2 G2 |!ff! c3 c c2 c2 | c2 c2 !fermata!c2 F2 | G2 E2 A2 G2 | G8 | %65
w: morn- ing's beam is|glanc- ing O'er|files ar- rayed With|helm and blade, In|Free- dom's cause ad-|vanc-|
 .G2 z2 !fermata!z4 || %66
w: ing!|
V:3
!f! C3 C (CD)!<(! (EF)!<)! | G4 G2 d2 | c3 d c2 f2 | e4 e2 z e | e2 c2 d3 c | A2 c2 d3 A | %6
w: 1. the sight * en- *|tranc- ing, When|morn- ing's beam is|glanc- ing O'er|files ar- ray'd With|helm and blade, And|
 B2 A>A f2 d2 | e4 e2!mf! e2 | c6 c2 | (GABc) d2 e>e | e3 e e2 d2 | c4 !fermata!d2 z!p! G | %12
w: plumes in the gay wind|danc- ing! When|hearts are|beat- * * * ing, And the|trum- pet's voice re-|peat- ing That|
 G2 c2 A2 (EF) | G2 c2 A2 (EF) | (!>!AG) (FE) (GF) (ED) | C4 C2 z2 |!mf! c2 c>B c2 c2 | d4 B3 c | %18
w: song, whose breath May *|lead to death, But *|nev- * er * to * re- *|treat- ing.|Then, if a cloud comes|o- ver The|
 A3 A (Bc) (de) | f4 d4 | z4!mf! d2 e>e |!<(! f3!<)! e d2!f! dd | d2 c2 f2 d2 | (e2 f2) e4 | %24
w: brow of sire * or _|lov- er,|Think 'tis the|shade of Vic- t'ry, Whose|wings right o'er us|ho- * ver.|
!f!!f! c3 c c2 c2 | c4 B2 d2 | c3 d (c!<(!B)!<)! c2 | (B3 d) .g2!ff! g2 | e3 e f2 g2 | %29
w: Oh, that sight en-|tranc- ing, When|morn- ing's beam * is|glanc- * ing O'er|files ar- ray'd With|
 f2 e2 !fermata!f2 c2 | c2 c>c f2 f2 | e8 | .e2 z2 z4 ||!f! C2 CC (C!<(!D) (E!<)!F) | G4 G2 d2 | %35
w: helm and blade, And|plumes in the gay wind|danc-|ing!|Yet 'tis not helm * or _|feath- er For-|
 c3 d c2 f2 | e4 e2 e2 | e2 c2 d3 c | A2 c2 d3 A | B2 A2 f2 d2 | e4 e2!mf! e2 | c3 c c2 c2 | %42
w: ask yon des- pot,|wheth- er His|plum- ed bands Could|bring such hands And|hearts as ours to-|geth- er. Leave|pomps to those who|
 (G2 B2) d2!<(! e2 | e3!<)! e e2 d2 | c4 !fermata!d2 z!p! G | G2 c2 A2 (EF) | G2 c2 A2 (EF) | %47
w: need _ 'em Give|man but heart and|free- dom, And|proud he braves The *|gau- diest slaves, That *|
 (!>!AG) (FE) (GF) (ED) | C4 C2!f! G2 | c7/2 d/ c2 c2 | d4 e2 c2 | d3 d (dc) B2 | d4 B2 z2 | %53
w: crawl * when * mon- * archs *|lead 'em. The|sword may pierce the|betw- er, Stone|walls in time * may|sev- er,|
 z2 c2 d2 e2 |!<(! f3 e!<)! d2!f! d2 | d2 c2 f2 d2 | (e2 f2) e4 |!f! c3 c c2 c2 | c4 B2 d2 | %59
w: 'Tis mind, 'tis|mind a- lone, That|keeps men free for|ev- * er.|Oh, that sight en-|tranc- ing, When|
 c3 d!<(! (cB)!<)! c2 | (B3 d) .g2 g2 | e3 e f2 g2 | f2 e2 !fermata!f2 c2 | c2 c2 f2 f2 | e8 | %65
w: morn- ing's beam * is|glanc- * ing O'er|files ar- rayed With|helm and blade, In|Free- dom's cause ad-|vanc-|
 .e2 z2 !fermata!z4 || %66
w: ing!|
V:4
!f! C,3 C, (C,D,)!<(! (E,F,)!<)! | G,4 G,2 G,2 | A,3 G, A,2 B,2 | C4 C2 z C | C2 A,2 G,3 A, | %5
w: 1. the sight * en- *|tranc- ing, When|morn- ing's beam is|glanc- ing O'er|files ar- ray'd With|
 F,2 E,2 D,3 F, | E,2 A,>A, F,2 G,2 | C4 C,2!f! C,2 | C,2 C,2 (C,D,) (E,F,) | (G,3 A,) B,2 C>C | %10
w: helm and blade, And|plumes in the gay wind|danc- ing! When|hearts are all * high- *|beat- * ing, And the|
 A,3 E, A,2 B,2 | (C3 A,) !fermata!G,2 z!p! G, | G,2 A,2 D,2 (E,F,) | G,2 A,2 D,2 (E,F,) | %14
w: trum- pet's voice re-|peat- * ing That|song, whose breath May *|lead to death, But *|
 (!>!A,G,) (F,E,) (G,F,) (E,D,) | C,4 C,2 z2 |!mf! A,2 A,>A, A,2 A,2 | B,4 G,3 A, | x4 (G,A,) x2 | %19
w: nev- * er * to * re- *|treat- ing.|Then, if a cloud comes|o- ver The||
 [D,A,]4 [G,B,]4 | z4!mf! [G,B,]2 [G,B,]>[G,B,] |!<(! [A,C]3!<)! [G,C] [F,C]2!f! [G,B,][G,B,] | %22
w: lov- er,|Think 'tis the|shade of Vic- t'ry, Whose|
 [E,G,]2 A,2 [D,A,]2 [G,B,]2 | C4 x4 | C3 B, A,2 A,2 | G,4 G,2 F,2 | E,3 F, (E,!<(!D,) (C,!<)!E,) | %27
w: wings right o'er us||Oh, that sight en-|tranc- ing, When|morn- ing's beam * is _|
 G,4 .B,2 G,2 | _B,3 B, A,2 G,2 | A,2 C2 !fermata!F,2 A,2 | G,2 A,>A, F,2 G,2 | C8 | .C2 z2 z4 || %33
w: glanc- ing O'er|files ar- ray'd With|helm and blade, And|plumes in the gay wind|danc-|ing!|
!f! C,2 C,C, (C,!<(!D,) (E,!<)!F,) | G,4 G,2 G,2 | A,3 G, A,2 B,2 | C4 C2 C2 | C2 A,2 G,3 A, | %38
w: Yet 'tis not * helm or _|feath- er For|ask yon des- pot,|wheth- er His|plum- ed bands Could|
 F,2 E,2 D,3 F, | E,2 A,2 G,2 G,2 | C4 G,2 G,2 | C,2 C,2 (C,D,) (E,F,) | (G,3 A,) B,2!<(! C2 | %43
w: bring such hands And|hearts as ours to-|geth- er. Leave|pomps to those * who _|need- * 'em, Give|
 A,3!<)! E, A,2 B,2 | (C3 A,) !fermata!G,2 z!p! G, | G,2 A,2 D,2 (E,F,) | G,2 A,2 D,2 (E,F,) | %47
w: man but heart and|free- * dom, And|proud he braves The *|gau- diest slaves, That *|
 (!>!A,G,) (F,E,) (G,F,) (E,D,) | C,4 C,2!f! G,2 | C7/2 B,/ C2 A,2 | G,4 G,2 A,2 | F,3 F, G,2 G,2 | %52
w: crawl * when * mon- * archs *|lead 'em. The|sword may pierce the|beav- er, Stone|walls in time may|
 D,4 G,2 z2 | z2 C2 B,2 [G,B,]2 |!<(! [A,C]3 [G,C]!<)! [F,C]2!f! [G,B,]2 | %55
w: sev- er,|'Tis mind, 'tis|mind a- lone, That|
 [E,G,]2 A,2 [D,A,]2 [G,B,]2 | C4 C4 |!f! C3 B, A,2 A,2 | G,4 G,2 F,2 | %59
w: keeps men free for||Oh, that sight en-|tranc- ing, When|
 E,3 F,!<(! (E,D,) (C,!<)!E,) | G,4 .B,2!ff! G,2 | _B,3 B, A,2 G,2 | A,2 C2 !fermata!F,2 A,2 | %63
w: morn- ing's beam * is _|glanc- ing O'er|files ar- rayed With|helm and blade, In|
 G,2 A,2 F,2 G,2 | C8 | .C2 z2 !fermata!z4 || %66
w: Free- dom's cause ad-|vanc-|ing!|
V:5
 x8 | x8 | x8 | x8 | x8 | x8 | x8 | x8 | x8 | x8 | x8 | x8 | x8 | x8 | x8 | x8 | x8 | x8 | %18
w: ||||||||||||||||||
 F,3 F, G,2 [G,B,]2 | x8 | x8 | x8 | x8 | (C,2 F,2) [C,C]4 | x8 | x8 | x8 | x8 | x8 | x8 | x8 | %31
w: brow of sire or|||||ho- * ver.||||||||
 x8 | x8 || x8 | x8 | x8 | x8 | x8 | x8 | x8 | x8 | x8 | x8 | x8 | x8 | x8 | x8 | x8 | x8 | x8 | %50
w: |||||||||||||||||||
 x8 | x8 | x8 | x8 | x8 | x8 | (C,2 F,2) C,4 | x8 | x8 | x8 | x8 | x8 | x8 | x8 | x8 | x8 || %66
w: ||||||ev- * er.||||||||||

